X: 4
T: Johnny Allen's
R: reel
M: 4/4
L: 1/8
K: Dmix
|:AAAB AGFD|DccB cedc|A2 BG AGFE|DGGG DGGG|
AGBG AGFG|Add^c defg|afge fded|dcAF G2 FG:||
|:Addc AGFG|Addg fdec|Addc AGFG|DGGG DGGG|
Addc AGFG|Addg fffg|afge fded|dcAF G2 FG:||
|:AAAg fded|dcAB cedc|AAAg fded|dcAF G2 FG|
AAAg fded|dcAB cdeg|afge fded|dcAF G2 FG:||


Tune 278	Setting 23144

